X: 71
M:2/4
L:1/16
K:G
v.G2B"4"e .d2B"4"e | .d2B"4"e dB.g2 |"^SEGUE" G2Be d2Be | \
d2cB (Ac).B.A |
|:v"1"b2gb "1"a2fa | "1"g2eg "^SEGUE"f^dB2 | b2gb a2fa | \
gfga b2ga |
b2gb a2fa | g2eg f^dB2 | B2^df bagf | agfg e2d2 "_D.C.":|


